packages/docs/public/landing/features/nuxt-support.svg

<svg width="48" height="48" viewBox="0 0 48 48" fill="none" xmlns="http://www.w3.org/2000/svg">
<path d="M27.351 16.0143L25.7083 18.9065L20.0905 9.01286L2.84487 39.3806H14.5213C14.5213 40.9779 15.7948 42.2728 17.3658 42.2728H2.84488C1.82875 42.2728 0.889902 41.7213 0.381924 40.8265C-0.126054 39.9317 -0.126003 38.8293 0.38206 37.9346L17.6277 7.56677C18.1358 6.67189 19.0748 6.12061 20.0911 6.12061C21.1074 6.12061 22.0464 6.67189 22.5545 7.56677L27.351 16.0143V16.0143Z" fill="#6C7898"/>
<path d="M39.7998 37.9344L28.9932 18.9063L27.3506 16.0142L25.7079 18.9063L14.9026 37.9344C14.3945 38.8292 14.3945 39.9315 14.9024 40.8263C15.4104 41.7211 16.3493 42.2727 17.3654 42.2727H37.3334C38.3497 42.2727 39.289 41.7217 39.7972 40.8269C40.3055 39.932 40.3056 38.8293 39.7974 37.9344H39.7998ZM17.3654 39.3805L27.3506 21.7985L37.3334 39.3805H17.3654H17.3654Z" fill="#6C7898"/>
<path d="M47.525 40.827C47.017 41.7216 46.0782 42.2731 45.0622 42.2731H37.3324C38.9034 42.2731 40.1769 40.9782 40.1769 39.3809H45.0563L31.2109 14.9987L28.9923 18.9067L27.3496 16.0146L28.7481 13.5526C29.2562 12.6577 30.1953 12.1064 31.2115 12.1064C32.2278 12.1064 33.1668 12.6577 33.6749 13.5526L47.525 37.9348C48.0331 38.8296 48.0331 39.9321 47.525 40.827Z" fill="#6C7898"/>
</svg>

<svg xmlns="http://www.w3.org/2000/svg" width="48" height="48" fill="none" viewBox="0 0 48 48"><path fill="#6C7898" d="m27.35 16.01-1.64 2.9L20.09 9 2.84 39.38h11.68c0 1.6 1.27 2.9 2.85 2.9H2.84a2.84 2.84 0 0 1-2.46-1.45c-.5-.9-.5-2 0-2.9L17.63 7.57c.5-.9 1.44-1.45 2.46-1.45s1.96.55 2.46 1.45l4.8 8.44Z"/><path fill="#6C7898" d="M39.8 37.93 29 18.91 27.34 16l-1.64 2.9-10.8 19.02c-.52.9-.52 2 0 2.9.5.9 1.44 1.44 2.46 1.44h19.96c1.02 0 1.96-.55 2.47-1.44.5-.9.5-2 0-2.9Zm-22.43 1.45 9.98-17.58 9.98 17.58H17.37Z"/><path fill="#6C7898" d="M47.52 40.83c-.5.9-1.44 1.44-2.46 1.44h-7.73c1.57 0 2.85-1.3 2.85-2.89h4.88L31.2 15 29 18.9l-1.64-2.89 1.4-2.46c.5-.9 1.45-1.44 2.46-1.44 1.02 0 1.96.55 2.46 1.44l13.85 24.38c.51.9.51 2 0 2.9Z"/></svg>
